X:1783
T:Poll Ha'penny
T:Maire Na Leat-Pingin
C:"collected by F.O'Neill"
S:1783 O'Neill's Music of Ireland
B:O'Neill's 1783
Z:Transcribed by Robert Thorpe (thorpe@skep.com)
Z:ABCMUS 1.0
M:C|
L:1/8
K:A
f-e|cAAB BGEB|cAGE G2 c-d|edce dcAG|A2 AA A2:|
d-e|f2 fd e2 ed|cdef g2 gb|aged cAdc|A2 AA A2 (3def|
gfga gfef|gfga g2 e-d|eaab afed|eaab a2 a-g|
f2 fd e2 ed|cdef g3 b|aged cAdc|A2 AA A2||


